Dominus_Dark_Funeral/scalable/apps/bookmark-missing.svg

<?xml version="1.0" encoding="UTF-8" standalone="no"?><svg xmlns:dc="http://purl.org/dc/elements/1.1/" xmlns:cc="http://creativecommons.org/ns#" xmlns:rdf="http://www.w3.org/1999/02/22-rdf-syntax-ns#" xmlns="http://www.w3.org/2000/svg" xmlns:xlink="http://www.w3.org/1999/xlink" width="64" height="64"><metadata><rdf:RDF><cc:Work><dc:format>image/svg+xml</dc:format><dc:type rdf:resource="http://purl.org/dc/dcmitype/StillImage"/><dc:title/></cc:Work></rdf:RDF></metadata><defs><linearGradient id="f"><stop offset="0" stop-color="#fff"/><stop offset="1" stop-color="#fff" stop-opacity=".02"/></linearGradient><linearGradient id="e"><stop offset="0" stop-color="#164450"/><stop offset="1" stop-color="#164450" stop-opacity="0"/></linearGradient><linearGradient id="d"><stop offset="0" stop-color="#fff"/><stop offset="1" stop-color="#fff" stop-opacity=".07"/></linearGradient><linearGradient id="c"><stop offset="0" stop-color="#fff"/><stop offset=".52" stop-color="#fff"/><stop offset="1" stop-color="#ccc"/></linearGradient><linearGradient gradientTransform="translate(-3.43 -.1) scale(1.10714)" xlink:href="#a" id="i" gradientUnits="userSpaceOnUse" x1="16.5" y1="4.88" x2="57.65" y2="31.61"/><linearGradient id="a"><stop offset="0" stop-color="#030000"/><stop offset="1" stop-color="#030000" stop-opacity="0"/></linearGradient><linearGradient xlink:href="#b" id="h" gradientUnits="userSpaceOnUse" x1="31.7" y1=".96" x2="32.04" y2="63.55" gradientTransform="translate(-3.43 -6.75) scale(1.10714)"/><linearGradient id="b"><stop offset="0" stop-color="#164450"/><stop offset="1" stop-color="#00cdff"/></linearGradient><linearGradient xlink:href="#d" id="o" x1="32" y1="4.17" x2="32" y2="20.6" gradientUnits="userSpaceOnUse"/><linearGradient xlink:href="#e" id="j" x1="12" y1="40.57" x2="12" y2="63.29" gradientUnits="userSpaceOnUse" gradientTransform="translate(20)"/><linearGradient xlink:href="#f" id="k" x1="32" y1="-.48" x2="32" y2="26.39" gradientUnits="userSpaceOnUse" gradientTransform="matrix(.96442 0 0 .0658 1.14 .93)"/><linearGradient xlink:href="#g" id="n" gradientUnits="userSpaceOnUse" gradientTransform="translate(23.14 -3.32) scale(1.20619)" x1="15.74" y1="8.52" x2="45.94" y2="39.66"/><linearGradient id="g"><stop offset="0"/><stop offset="1" stop-opacity="0"/></linearGradient><radialGradient xlink:href="#c" id="l" cx="32" cy="19.82" fx="32" fy="19.82" r="15.27" gradientUnits="userSpaceOnUse"/><linearGradient xlink:href="#g" id="m" gradientUnits="userSpaceOnUse" gradientTransform="translate(23.14 -3.32) scale(1.20619)" x1="15.74" y1="8.52" x2="45.94" y2="39.66"/></defs><path d="M19.13 1s-4.3 0-4.3 4.29V63L32 45.84 49.16 63V5.29C49.16 1 44.87 1 44.87 1z" fill="url(#h)"/><path d="M49.16 58.68v-43.4L42.28 8.4 20.72 30.25z" opacity=".7" fill="url(#i)"/><path d="M49.16 59L32 41.84 14.83 59v4L32 45.84 49.16 63z" fill="url(#j)"/><path d="M15.44 2.5a21.67 1.45 0 0 0 1.01.08 21.67 1.45 0 0 0 1.59.1 21.67 1.45 0 0 0 1.72.09 21.67 1.45 0 0 0 1.85.08 21.67 1.45 0 0 0 1.95.06 21.67 1.45 0 0 0 2.04.05 21.67 1.45 0 0 0 2.1.03 21.67 1.45 0 0 0 2.14.03 21.67 1.45 0 0 0 2.16 0 21.67 1.45 0 0 0 1.53 0A21.67 1.45 0 0 0 35.68 3a21.67 1.45 0 0 0 2.12-.03 21.67 1.45 0 0 0 2.05-.04 21.67 1.45 0 0 0 1.98-.06 21.67 1.45 0 0 0 1.88-.08 21.67 1.45 0 0 0 1.76-.08 21.67 1.45 0 0 0 1.63-.1 21.67 1.45 0 0 0 1.45-.1V1.28C48.55 1 44.4 1 44.4 1H19.6s-4.15 0-4.15.28z" opacity=".59" fill="url(#k)"/><path d="M42.8 9.02A15.17 15.17 0 0 0 32 4.55a15.2 15.2 0 0 0-10.8 4.47 15.17 15.17 0 0 0-4.47 10.8c0 4.08 1.59 7.92 4.47 10.8A15.17 15.17 0 0 0 32 35.09a15.2 15.2 0 0 0 10.8-4.47 15.17 15.17 0 0 0 4.47-10.8 15.2 15.2 0 0 0-4.47-10.8z" fill="url(#l)"/><g opacity=".45"><path transform="translate(-20)" d="M59.95 32.81c.17-.1.35-.16.52-.27a15.43 15.43 0 0 0 6.5-9.72c.09-.4.08-.83.13-1.25L55.95 10.42l-2.84-.11-4.66 1.59-2.03 3.96 5.21 5.46.38 3.2z" opacity=".85" fill="url(#m)"/><path transform="translate(-20)" d="M54.7 34.83l.3-.03a15.12 15.12 0 0 0 3.84-1.33l-5.4-5.45-2.73 2.5z" opacity=".85" fill="url(#n)"/></g><path d="M32.01 8.96a5.94 5.94 0 0 1 1.48 11.67v2.42a1.48 1.48 0 1 1-2.96 0v-3.7c0-.83.66-1.5 1.48-1.5a2.97 2.97 0 1 0-2.97-2.96 1.48 1.48 0 1 1-2.96 0A5.94 5.94 0 0 1 32 8.96zm0 18.41a1.85 1.85 0 0 1 1.85 1.86 1.85 1.85 0 0 1-1.85 1.85 1.85 1.85 0 0 1-1.85-1.85A1.85 1.85 0 0 1 32 27.37z" fill="#216778"/><path d="M46.28 15.77c-.15-.52-.26-1.05-.46-1.55a15.26 15.26 0 0 0-3.25-4.96 14.88 15.17 0 0 0-1.1-1.02 14.88 15.17 0 0 0-1.2-.9 14.88 15.17 0 0 0-1.28-.78 14.88 15.17 0 0 0-1.34-.64 14.88 15.17 0 0 0-1.4-.5 14.88 15.17 0 0 0-1.45-.36 14.88 15.17 0 0 0-1.48-.2 14.88 15.17 0 0 0-1.35-.06 14.85 14.85 0 0 0-10.6 4.46 14.88 15.17 0 0 0-1 1.13 14.88 15.17 0 0 0-.88 1.21 14.88 15.17 0 0 0-.77 1.3 14.88 15.17 0 0 0-.63 1.38 14.88 15.17 0 0 0-.49 1.42 15.7 8.24 0 0 0 14.37 4.94 15.7 8.24 0 0 0 14.3-4.87z" opacity=".51" fill="url(#o)"/></svg>

<?xml version="1.0" encoding="UTF-8" standalone="no"?>
<svg
   xmlns:dc="http://purl.org/dc/elements/1.1/"
   xmlns:cc="http://creativecommons.org/ns#"
   xmlns:rdf="http://www.w3.org/1999/02/22-rdf-syntax-ns#"
   xmlns:svg="http://www.w3.org/2000/svg"
   xmlns="http://www.w3.org/2000/svg"
   xmlns:xlink="http://www.w3.org/1999/xlink"
   xmlns:sodipodi="http://sodipodi.sourceforge.net/DTD/sodipodi-0.dtd"
   xmlns:inkscape="http://www.inkscape.org/namespaces/inkscape"
   width="64"
   height="64"
   version="1.1"
   id="svg71"
   sodipodi:docname="bookmark-missing.svg"
   inkscape:version="0.92.4 (5da689c313, 2019-01-14)">
  <sodipodi:namedview
     pagecolor="#ffffff"
     bordercolor="#666666"
     borderopacity="1"
     objecttolerance="10"
     gridtolerance="10"
     guidetolerance="10"
     inkscape:pageopacity="0"
     inkscape:pageshadow="2"
     inkscape:window-width="1112"
     inkscape:window-height="480"
     id="namedview73"
     showgrid="false"
     inkscape:zoom="3.6875"
     inkscape:cx="2.8474576"
     inkscape:cy="32"
     inkscape:window-x="0"
     inkscape:window-y="25"
     inkscape:window-maximized="0"
     inkscape:current-layer="svg71" />
  <metadata
     id="metadata2">
    <rdf:RDF>
      <cc:Work>
        <dc:format>image/svg+xml</dc:format>
        <dc:type
           rdf:resource="http://purl.org/dc/dcmitype/StillImage" />
        <dc:title></dc:title>
      </cc:Work>
    </rdf:RDF>
  </metadata>
  <defs
     id="defs49">
    <linearGradient
       id="f">
      <stop
         offset="0"
         stop-color="#fff"
         id="stop4" />
      <stop
         offset="1"
         stop-color="#fff"
         stop-opacity=".02"
         id="stop6" />
    </linearGradient>
    <linearGradient
       id="e">
      <stop
         offset="0"
         stop-color="#164450"
         id="stop9" />
      <stop
         offset="1"
         stop-color="#164450"
         stop-opacity="0"
         id="stop11" />
    </linearGradient>
    <linearGradient
       id="d">
      <stop
         offset="0"
         stop-color="#fff"
         id="stop14" />
      <stop
         offset="1"
         stop-color="#fff"
         stop-opacity=".07"
         id="stop16" />
    </linearGradient>
    <linearGradient
       id="c">
      <stop
         offset="0"
         stop-color="#fff"
         id="stop19" />
      <stop
         offset=".52"
         stop-color="#fff"
         id="stop21" />
      <stop
         offset="1"
         stop-color="#ccc"
         id="stop23" />
    </linearGradient>
    <linearGradient
       gradientTransform="matrix(1.10714,0,0,1.10714,-3.43,-0.1)"
       xlink:href="#a"
       id="i"
       gradientUnits="userSpaceOnUse"
       x1="16.5"
       y1="4.88"
       x2="57.65"
       y2="31.61" />
    <linearGradient
       id="a">
      <stop
         offset="0"
         stop-color="#030000"
         id="stop27" />
      <stop
         offset="1"
         stop-color="#030000"
         stop-opacity="0"
         id="stop29" />
    </linearGradient>
    <linearGradient
       xlink:href="#b"
       id="h"
       gradientUnits="userSpaceOnUse"
       x1="31.7"
       y1=".96"
       x2="32.04"
       y2="63.55"
       gradientTransform="matrix(1.10714,0,0,1.10714,-3.43,-6.75)" />
    <linearGradient
       id="b">
      <stop
         offset="0"
         stop-color="#164450"
         id="stop33" />
      <stop
         offset="1"
         stop-color="#00cdff"
         id="stop35" />
    </linearGradient>
    <linearGradient
       xlink:href="#d"
       id="o"
       x1="32"
       y1="4.17"
       x2="32"
       y2="20.6"
       gradientUnits="userSpaceOnUse" />
    <linearGradient
       xlink:href="#e"
       id="j"
       x1="12"
       y1="40.57"
       x2="12"
       y2="63.29"
       gradientUnits="userSpaceOnUse"
       gradientTransform="translate(20)" />
    <linearGradient
       xlink:href="#f"
       id="k"
       x1="32"
       y1="-.48"
       x2="32"
       y2="26.39"
       gradientUnits="userSpaceOnUse"
       gradientTransform="matrix(0.96442,0,0,0.0658,1.14,0.93)" />
    <linearGradient
       xlink:href="#g"
       id="n"
       gradientUnits="userSpaceOnUse"
       gradientTransform="matrix(1.20619,0,0,1.20619,23.14,-3.32)"
       x1="15.74"
       y1="8.52"
       x2="45.94"
       y2="39.66" />
    <linearGradient
       id="g">
      <stop
         offset="0"
         id="stop42" />
      <stop
         offset="1"
         stop-opacity="0"
         id="stop44" />
    </linearGradient>
    <radialGradient
       xlink:href="#c"
       id="l"
       cx="32"
       cy="19.82"
       fx="32"
       fy="19.82"
       r="15.27"
       gradientUnits="userSpaceOnUse" />
    <linearGradient
       xlink:href="#g"
       id="m"
       gradientUnits="userSpaceOnUse"
       gradientTransform="matrix(1.20619,0,0,1.20619,23.14,-3.32)"
       x1="15.74"
       y1="8.52"
       x2="45.94"
       y2="39.66" />
  </defs>
  <path
     d="m 19.13,1 c 0,0 -4.3,0 -4.3,4.29 V 63 L 32,45.84 49.16,63 V 5.29 C 49.16,1 44.87,1 44.87,1 Z"
     id="path51"
     style="fill:url(#h)"
     inkscape:connector-curvature="0" />
  <path
     d="M 49.16,58.68 V 15.28 L 42.28,8.4 20.72,30.25 Z"
     id="path53"
     style="opacity:0.7;fill:url(#i)"
     inkscape:connector-curvature="0" />
  <path
     d="M 49.16,59 32,41.84 14.83,59 v 4 L 32,45.84 49.16,63 Z"
     id="path55"
     style="fill:url(#j)"
     inkscape:connector-curvature="0" />
  <path
     d="m 15.44,2.5 a 21.67,1.45 0 0 0 1.01,0.08 21.67,1.45 0 0 0 1.59,0.1 21.67,1.45 0 0 0 1.72,0.09 21.67,1.45 0 0 0 1.85,0.08 21.67,1.45 0 0 0 1.95,0.06 21.67,1.45 0 0 0 2.04,0.05 21.67,1.45 0 0 0 2.1,0.03 21.67,1.45 0 0 0 2.14,0.03 21.67,1.45 0 0 0 2.16,0 21.67,1.45 0 0 0 1.53,0 A 21.67,1.45 0 0 0 35.68,3 21.67,1.45 0 0 0 37.8,2.97 21.67,1.45 0 0 0 39.85,2.93 21.67,1.45 0 0 0 41.83,2.87 21.67,1.45 0 0 0 43.71,2.79 21.67,1.45 0 0 0 45.47,2.71 21.67,1.45 0 0 0 47.1,2.61 21.67,1.45 0 0 0 48.55,2.51 V 1.28 C 48.55,1 44.4,1 44.4,1 H 19.6 c 0,0 -4.15,0 -4.15,0.28 z"
     id="path57"
     style="opacity:0.58999999;fill:url(#k)"
     inkscape:connector-curvature="0" />
  <path
     d="M 42.8,9.02 A 15.17,15.17 0 0 0 32,4.55 15.2,15.2 0 0 0 21.2,9.02 15.17,15.17 0 0 0 16.73,19.82 c 0,4.08 1.59,7.92 4.47,10.8 A 15.17,15.17 0 0 0 32,35.09 15.2,15.2 0 0 0 42.8,30.62 15.17,15.17 0 0 0 47.27,19.82 15.2,15.2 0 0 0 42.8,9.02 Z"
     id="path59"
     style="fill:url(#l)"
     inkscape:connector-curvature="0" />
  <g
     id="g65"
     style="opacity:0.45">
    <path
       transform="translate(-20)"
       d="m 59.95,32.81 c 0.17,-0.1 0.35,-0.16 0.52,-0.27 a 15.43,15.43 0 0 0 6.5,-9.72 c 0.09,-0.4 0.08,-0.83 0.13,-1.25 l -11.15,-11.15 -2.84,-0.11 -4.66,1.59 -2.03,3.96 5.21,5.46 0.38,3.2 z"
       id="path61"
       style="opacity:0.85;fill:url(#m)"
       inkscape:connector-curvature="0" />
    <path
       transform="translate(-20)"
       d="M 54.7,34.83 55,34.8 a 15.12,15.12 0 0 0 3.84,-1.33 l -5.4,-5.45 -2.73,2.5 z"
       id="path63"
       style="opacity:0.85;fill:url(#n)"
       inkscape:connector-curvature="0" />
  </g>
  <path
     d="m 32.01,8.96 a 5.94,5.94 0 0 1 1.48,11.67 v 2.42 a 1.48,1.48 0 1 1 -2.96,0 v -3.7 c 0,-0.83 0.66,-1.5 1.48,-1.5 a 2.97,2.97 0 1 0 -2.97,-2.96 1.48,1.48 0 1 1 -2.96,0 A 5.94,5.94 0 0 1 32,8.96 Z m 0,18.41 a 1.85,1.85 0 0 1 1.85,1.86 1.85,1.85 0 0 1 -1.85,1.85 1.85,1.85 0 0 1 -1.85,-1.85 1.85,1.85 0 0 1 1.84,-1.86 z"
     id="path67"
     inkscape:connector-curvature="0"
     style="fill:#216778" />
  <path
     d="M 46.28,15.77 C 46.13,15.25 46.02,14.72 45.82,14.22 A 15.26,15.26 0 0 0 42.57,9.26 14.88,15.17 0 0 0 41.47,8.24 14.88,15.17 0 0 0 40.27,7.34 14.88,15.17 0 0 0 38.99,6.56 14.88,15.17 0 0 0 37.65,5.92 14.88,15.17 0 0 0 36.25,5.42 14.88,15.17 0 0 0 34.8,5.06 14.88,15.17 0 0 0 33.32,4.86 14.88,15.17 0 0 0 31.97,4.8 a 14.85,14.85 0 0 0 -10.6,4.46 14.88,15.17 0 0 0 -1,1.13 14.88,15.17 0 0 0 -0.88,1.21 14.88,15.17 0 0 0 -0.77,1.3 14.88,15.17 0 0 0 -0.63,1.38 14.88,15.17 0 0 0 -0.49,1.42 15.7,8.24 0 0 0 14.37,4.94 15.7,8.24 0 0 0 14.3,-4.87 z"
     id="path69"
     style="opacity:0.51000001;fill:url(#o)"
     inkscape:connector-curvature="0" />
</svg>
